images/close-icon.svg

<svg width="58" height="58" viewBox="0 0 58 58" fill="none" xmlns="http://www.w3.org/2000/svg">
<path d="M41.5709 13.2865L29.0001 25.8573L16.4293 13.2865L13.2866 16.4292L25.8574 29L13.2866 41.5708L16.4293 44.7135L29.0001 32.1427L41.5709 44.7135L44.7136 41.5708L32.1428 29L44.7136 16.4292L41.5709 13.2865Z" fill="white"/>
</svg>

<svg width="58" height="58" fill="none" xmlns="http://www.w3.org/2000/svg"><path d="M41.57 13.287L29 25.857l-12.57-12.57-3.143 3.142L25.857 29l-12.57 12.57 3.142 3.144L29 32.143l12.57 12.57 3.144-3.142L32.143 29l12.57-12.57-3.142-3.143z" fill="#fff"/></svg>
